X: 399
T: Gaizi shilidun
%%abc-version 2.0
%%abcx-abcm2ps-target-version 5.9.1 (29 Sep 2008)
%%abc-creator hum2abc beta
%%abcx-conversion-date 2013/10/02 07:52:30
%%abc-edited-by Helmut Schaffrath
%%humdrum-veritas 2795297996
%%humdrum-veritas-data 3262018581
%%continueall 1
%%barnumbers 0
L: 1/8
M: 2/4
K: G
d> B A d [I:setbarnb 1]| 
G A E D | 
d B A e | 
d4 | 
d> B A d | 
G A E D | 
d A/ B/ A E | 
D4 | 
B A/ B/ A E | 
D4 | 
D2d2 | 
e d d B | 
A/ B/ A/ G/ E G | 
A4 | 
D2d2 | 
e d d E | 
G> A E D | 
e d d E | 
G A E D | 
G B A G | 
A B A G | 
A/ B/ A/ G/ A/ B/ A/ G/ | 
E G A/ B/ A/ B/ | 
d E G A | 
D4 |]  



